X: 62
T:Danbury Hill
% Nottingham Music Database
S:Trad, arr Phil Rowe
M:6/8
K:Am
"E7"cB|"Am"Ace "Dm"f2e|"G7"dBG "C"e2d|"F"cBc "Dm"dcB|"Am"ABA "E7"^G^FE|
"Am"Ace "Dm"f2e|"G7"dBG "C"e2d|"F"cBc "E7"dcB|[1"Am"A3 -A:|[2 "Am" A3 -A2||
|:a-|"Am"aA_a =AgA|_gAf e3|"E7"efe d2B|efe d2B|
"Am"aA_a AgA|_gAf e3|"E7"efe dcB|"Am"A3 -A2:|


